-----BEGIN PGP PUBLIC KEY BLOCK-----

mQINBFMdlT8BEADlbTL/Y3i0UXPmrOOa1AtwOjUngwcChMc40OvbF0uSfXQKznoG
l73xASSsZxNAx9FcfLdE6z3LmxYkQ89pQU9ybsDvPAWPSQyOHrEqnA5waAkOpAze
veGZgBMWEVCZJbTbOwavPbCRXdBq5DQ1lzncflt9kAljC3tMCRWWsISLo3Egc3qT
ApafBCsnMO+VIfEiky/UuvvEUl+WBDFExmwM5cJPl11O/bC6gl+FoFDKy8w3FhFB
CFr9qfjzx/M5EXhZfkfRLi6CauXRGhADgdBfVfdqvV3QLCjx44He3ny6pgcmgnL9
5s5WZC71qZpyL1pZB6yyL5v7Y7f31+hIbbgEHtCZEKw0ZIen9PGGdM8+n3/kBQxo
ors8MdetGbae8ojYw7DwMrWobdmpKpnqRCUg7vlK78kskZwCluEDeJivLjy69C/O
Tv+48tk8tQxdCGW5lESExuDmakIy4ZBn9XlYcf/ORKEP8VBzPH1KgJcYBLN7JNlV
CYYOb0yfXWesh8VBnjSRjSDbUt1VliCC1ZCgJZH/4pggyEGDwvW9byOnZuup+9zt
Hi6ju0wUzhYn23uoztDkKM8OCbQd1ByM2BoNjDJ96K2cEJb9ddl5fYPdUwexa5Z/
cYrUvGvEvYwAcWBypz1Y62EQQoIcL6YeBdCQdW0EYkcl8iXoUZIGW3sXEwARAQAB
tCRoZW5uaW5nIG11ZWxsZXIgPGhlbm5pbmdAb3JnaXptLm5ldD6JAjoEEwEKACQC
GwMCHgECF4AFCwkIBwMFFQoJCAsFFgIDAQAFAlQq4pkCGQEACgkQBczPh65fxxKC
DRAApZLlfnjKSktbEZrSBTvHTCAg2ElO942GdorKxldn8NzcfhUCLmMMrtCNxWCx
yIXJaokJlSjd8Hm4KWgBO0W7eKvdaFUdSQQlB4wQPJWe06fRnEcadufxZ3J1U47j
hOvKFzD2ZeG5Xxz9tq4ldhcfhdE5R6+Z7ROB/+nWFsz1MWTUe14NnSQU9nUe8VUm
DeHBdkgSxBGImOE/hum2StDQNXaPRpJoSCrORFl/O4PQOBEcU+8RxuaQgpH+njLR
Q/V1+kdPc3dGMFYEe5gwfm3zk5GKwMJcyjNWZjDLWx2AlY04coHIDtaf6iSpUDdK
NI2xFYFwsa2eUOmst8XKwsn3sAn6l7urXj0sCVJJgs7Z427riGhD1rTZ7riNrWMk
/L6AUyOPJW3uGXDetLTmQT6J7fPlsWZd68LysyLr2p/dSVzVeugnDHBGlv+nwNOf
cE+5CG0UkybuY4QSgZlxY2uUkfddM00BfqpZbJfjFePb8XDLPQuF0tXdF4QdBv7l
WWug2XE6JY1wSEwLyMg2WpxHQWQcxQeHLR4I7re2XWNQiklot49icolpVdBtxz65
OCMswkoWZBw4Ts33ywPxZ+Bd5jz88cnNJwXud6Ps36A34JPPMvwBL6SyeyRfdqqJ
pfn8MKPnkcP0tvNAt5apGo9GQB78HoslGmQfVHkfz7l4HOm0H2hlbm5pbmcgbXVl
bGxlciA8bWFpbEBubmluZy5pbz6JAjcEEwEKACEFAlQRcFoCGwMFCwkIBwMFFQoJ
CAsFFgIDAQACHgECF4AACgkQBczPh65fxxICrhAAlTwBwWmr8moScJ2L10T+YYDm
gZLoZJ4FqJsncmfWL25udzeBWF2xBCkCPxrafVVCpEMBBi31NNENP9FO2RdnU4Gy
kB0wYvbQrK3oXtT4G672z8Jk3aW6700JapNVOX/Zujsw1VDl8RLqgOEPnDmZ6arH
EqAtW6HBB0pI0WNDECzhBJn2jqEERyXo8WeNSkK+yzsIiUXZAM7X669X4HF6bX60
qyfD5En865Zz8jiK5WmtqJBnJcA6MUYF/Pw9ITESp0CXtGEw6F5tJZQtoTdTxm6G
7+SL1a1eM3j2KXZAyMg29gY2DNph2r1ZaLJ+rM2aUab+yXE/UxGLvJOomtIyDNJQ
WmRHyVipaAG9b21D4zQwi2UoyKVFnDiCLlAm+akfQ4jntwFNxtENObR+du+obFdh
eL1DU9eagvI8XEVx7gjq1Q/tox8m89AS8s1ix+TENRw9a07PWtfwqhkGlwzPuP4o
FOfR/vgkKaZDMG5T7g9Q+6yxENZimmAls5Asv2QQaP9gYCSyPl22P8VYLf2JIYav
n1C1zldx68XeS6XNPJ3iYEIu8LOxHVdICDaGgBtWYK/62Qin1yYvSX4GOUAWhqV6
wQYN4BG/zjxMZHfMLF3GeLmdfMh93WK3fdhOooZN40RV4l4ksqHWiBfwbDzJo/0U
6T3V4gTu01Z0iddE8/q5Ag0EUx2VPwEQAKvhQhZGvP62z0EfyAxukLQwoEYGdjT/
otYiK9BnWo8KPW1OYDNvtLmq5h/d3dT8OCgu1nr+w/ELSQnIYG9ME2hT3HcB5D3J
KdxE8adcg/h/3KcwMyBNai68E66S9LYU/eV0a5fTxUWTWfyN6uOG1lymDjL7LKoE
WwenhambtPlk6wnzCF5Zbme97gAY+pj7LY3NrIML21cvjOZP5fCZo73JzhAMBLh0
W0qGNSG2PxFXjIp+ULICaFJ8UAQ6RLleNOYEOb4VEL735UzkfL7zN/WEiU9AhzW4
bAml4QV+uMht6Nix/0umZT5jrI9hlckBm29qSqSh66lzF0b8l2dFTg0C6Ly055qm
kt3SatqbJ9IRN5XCYHRpHsPqE37e/EO+WPPkkSnynRPsQe3krksxnbw4pSprOAUc
0Qh6Z9tNG7B/pKIakJ3yS/83EiPjqFNbaw1wRKndLb2t04B7si/DhQOFAgfEyneV
PqSW8JvXE1i95IqlysjmKOk2vsMyW34k3D+gt4kAEiB1hPwsoIP4K0sukr1vugTo
cuoMXzw4DiVCwocOHjjRQdtZG2BsT7IrgLDnd2HlJgrAD68BWgqga1tiemnDQJkK
xqeHdL4t9/sGfWQEPkQtdlU97SCEvR7c/RJg4MiX59s8q5BltiZzWdwwaVlCSoWO
Aipw3z9VApaDABEBAAGJAjYEGAEKACACGwwWIQTMu4epP59JTJPupHkFzM+Hrl/H
EgUCalkO7wAKCRAFzM+Hrl/HEnNLEAC+xCSEAhIa4Hm/bqHkfA1BXtpi7KbmygFB
fH7Jcyu1F2RFvafCknNzVcGOvDkoJXamyWeVado42zbGpmFhDuum5nxTaYUk9Jvx
hwSX7/XSufHxUNxLTP7M78QZNtDufwCMD1p4hxMuTDxX6zBaEg7tl3Zn42Lx0xGS
ZfNAfyMvIuIYnQvZCIsapBHES/aakDFLWa2s0qA8lPhTecpwTnpaHbvss006EtrE
AzejRo4jWb0KGN22VHLxnHBaXpAUF+Y74MYXw7O4tB3AWpHT+OeldWJYyRglJqXq
8nqDZPKfB8knGXEG4OwVkYPwou5PiLwu/FlECMjeLd5QEBdETgj6otZlkFMA4gLX
c7FKkuvr7qcA+JzeBiPMToXJ2Ub9tuONNDDjjGTdPQuKhbBnJungmXMmnIzDjeoP
BfevduDzy0XBoHOsmi9MwPmPlXGXudLB/JprcUVCrGIKLEBAB1So8+BQC2Cs1T8a
QOOHe86aT9xYcvFyOEYO49j3zd8A6dmyCTgW+Xuzt7dkqSEwEwYTEoWNtNKiJ4I3
2UuoYzyrBDEP8flQUXH9WUkPy4CPhN6Ha11UhaMhaG4qZn3U54BG20UgQZza6bgu
TxKePbyJ0+4wGUqtfJsf8B1x2RnxOScMX0j539ZMqzVwM1ocX5kOyDOTVhc1ka7j
r2zIWhCmHQ==
=lZuk
-----END PGP PUBLIC KEY BLOCK-----
